symbols/web/inventory_2/materialsymbolsoutlined/inventory_2_wght300gradN25_20px.svg

<svg xmlns="http://www.w3.org/2000/svg" height="20" width="20"><path d="M3.062 16.292V7.479Q2.75 7.354 2.5 6.99q-.25-.365-.25-.802V4.25q0-.646.438-1.083.437-.438 1.062-.438h12.5q.625 0 1.062.438.438.437.438 1.083v1.938q0 .437-.24.802-.239.364-.552.489v8.813q0 .625-.437 1.052-.438.427-1.063.427H4.562q-.624 0-1.062-.427-.438-.427-.438-1.052Zm1.25-8.604v8.562q0 .125.073.198.073.073.198.073h10.855q.124 0 .197-.073.073-.073.073-.198V7.688Zm11.938-1.25q.104 0 .177-.073t.073-.198V4.25q0-.125-.073-.198-.073-.073-.177-.073H3.75q-.104 0-.177.073T3.5 4.25v1.917q0 .125.073.198.073.073.177.073ZM7.688 11.5h4.624v-1.25H7.688Zm-3.376 5.062V7.688 16.562Z"/></svg>

<svg xmlns="http://www.w3.org/2000/svg" height="20" width="20"><path d="M3.062 16.292V7.479Q2.75 7.354 2.5 6.99Q2.25 6.625 2.25 6.188V4.25Q2.25 3.604 2.688 3.167Q3.125 2.729 3.75 2.729H16.25Q16.875 2.729 17.312 3.167Q17.75 3.604 17.75 4.25V6.188Q17.75 6.625 17.51 6.99Q17.271 7.354 16.958 7.479V16.292Q16.958 16.917 16.521 17.344Q16.083 17.771 15.458 17.771H4.562Q3.938 17.771 3.5 17.344Q3.062 16.917 3.062 16.292ZM4.312 7.688V16.25Q4.312 16.375 4.385 16.448Q4.458 16.521 4.583 16.521H15.438Q15.562 16.521 15.635 16.448Q15.708 16.375 15.708 16.25V7.688ZM16.25 6.438Q16.354 6.438 16.427 6.365Q16.5 6.292 16.5 6.167V4.25Q16.5 4.125 16.427 4.052Q16.354 3.979 16.25 3.979H3.75Q3.646 3.979 3.573 4.052Q3.5 4.125 3.5 4.25V6.167Q3.5 6.292 3.573 6.365Q3.646 6.438 3.75 6.438ZM7.688 11.5H12.312V10.25H7.688ZM4.312 16.562Q4.312 16.562 4.312 16.49Q4.312 16.417 4.312 16.292V7.688V16.292Q4.312 16.417 4.312 16.49Q4.312 16.562 4.312 16.562Z"/></svg>
